X:152
T:Quadrille. CJF.083a
R:Quadrille
S:C.J.Fox MS, 1829/33, Beverley,E.Yorks.
B:Kidson Coll.Mitchell Lib.M1805
O:England
A:East Yorkshire
Z:vmp.P J Headford 2000 & 2008
M:6/8
L:1/8
Q:1/4=90
K:G
B/c/”$”|(d3g2)f|(fe).e {f/}e/d/c/B/A/G/|\
(FG).A Ded|{d/}cBc B (G/A/B/c/)|!
d3{G/}g2f|(fe).e e/d/c/B/A/G/|F>GA DEF|G3G2h||!
d|(BG) d (BG) d|c (AF) D2d|\
(BG) d (BG) d|cd/c/B/c/A2d|!
BG d BG g|ecc cde|dBG D>EF|G2BG2″$”||!
(B/A/)|^GEE AEE|cAd cBA|\
(FD).D (GD).D|(AD)cB2D|!
(EG)c FGA|(GBd) gdB|(ABc) edc|c^c” D Capo”d A2|]

